REACT_GL/src/assets/CloseIcon.svg

<svg fill="none" height="33" viewBox="0 0 33 33" width="33" xmlns="http://www.w3.org/2000/svg"><path clip-rule="evenodd" d="m26.6128 6.026c5.8634 5.8634 5.8785 15.345.0459 21.1776-5.8326 5.8327-15.3142 5.8175-21.17763-.0459-5.863435-5.8635-5.878581-15.345-.04594-21.17764 5.83267-5.832649 15.31417-5.817503 21.17767.04594zm.7071-.70711c6.2512 6.25121 6.2718 16.36601.0459 22.59181-6.2259 6.2259-16.3406 6.2053-22.59183-.0459-6.25125-6.2513-6.27182-16.366-.04594-22.59185 6.22587-6.225879 16.34057-6.205311 22.59187.04594zm-16.7717 4.90971 5.7621 5.762 5.4712-5.4712.7072.7071-5.4713 5.4712 5.3887 5.3888-.7071.7071-5.3887-5.3888-5.6314 5.6314-.70711-.7071 5.63141-5.6314-5.76206-5.762z" fill="#090909" fill-rule="evenodd"/></svg>

<svg width="33" height="33" viewBox="0 0 33 33" fill="none" xmlns="http://www.w3.org/2000/svg">
<path fill-rule="evenodd" clip-rule="evenodd" d="M26.6128 6.026C32.4762 11.8894 32.4913 21.371 26.6587 27.2036C20.8261 33.0363 11.3445 33.0211 5.48107 27.1577C-0.382365 21.2942 -0.397511 11.8127 5.43513 5.98006C11.2678 0.147411 20.7493 0.162557 26.6128 6.026ZM27.3199 5.31889C33.5711 11.5701 33.5917 21.6849 27.3658 27.9107C21.1399 34.1366 11.0252 34.116 4.77397 27.8648C-1.47728 21.6135 -1.49785 11.4988 4.72803 5.27295C10.9539 -0.952929 21.0686 -0.932361 27.3199 5.31889ZM10.5482 10.2286L16.3103 15.9906L21.7815 10.5194L22.4887 11.2265L17.0174 16.6977L22.4061 22.0865L21.699 22.7936L16.3103 17.4048L10.6789 23.0362L9.97179 22.3291L15.6032 16.6977L9.84114 10.9357L10.5482 10.2286Z" fill="#090909"/>
</svg>
